img/facebook.svg

<svg width="25" height="25" viewBox="0 0 25 25" fill="none" xmlns="http://www.w3.org/2000/svg">
<path d="M14.0206 21.7999V13.6039H16.7856L17.1966 10.3949H14.0206V8.3509C14.0206 7.4249 14.2786 6.7909 15.6076 6.7909H17.2916V3.9299C16.4722 3.84209 15.6486 3.7997 14.8246 3.8029C12.3806 3.8029 10.7026 5.2949 10.7026 8.0339V10.3889H7.95557V13.5979H10.7086V21.7999H14.0206Z" fill="white"/>
</svg>

<svg width="25" height="25" fill="none" xmlns="http://www.w3.org/2000/svg">
  <path d="M14.02 21.8v-8.196h2.766l.41-3.21h-3.175V8.352c0-.926.258-1.56 1.587-1.56h1.684V3.93c-.82-.088-1.643-.13-2.467-.127-2.444 0-4.122 1.492-4.122 4.23v2.356H7.956v3.209h2.753V21.8h3.312Z" fill="#fff"/>
</svg>
